components/AnnouncementBar/logos/color-goldman.svg

<svg width="180" height="91" viewBox="0 0 180 91" fill="none" xmlns="http://www.w3.org/2000/svg">
<path fill-rule="evenodd" clip-rule="evenodd" d="M166.74 42.9001H159.713V15.033H166.327V18.1543C167.153 16.2815 169.221 14.6219 171.908 14.4107C176.454 14.205 179.556 16.9077 179.556 22.7278V42.8984H172.31V21.8924C172.31 19.3954 172.31 17.317 170.639 16.9021C170.018 16.6965 168.967 16.9021 168.157 17.5244C167.126 18.5655 166.708 19.814 166.708 21.8924V42.8945L166.74 42.9001ZM47.2708 16.9021C45.5989 15.4442 43.5499 14.405 41.0663 14.405C38.5825 14.405 36.7267 15.4461 34.8655 16.9021C31.9712 19.3991 30.1099 23.9725 30.1099 28.9629C30.1099 34.1624 31.9675 38.5285 34.8655 41.0237C36.7267 42.4815 38.5862 43.5207 41.0663 43.5207C43.5462 43.5207 45.6137 42.4833 47.2708 41.0237C50.3731 38.5268 52.0264 34.1605 52.0264 28.9629C52.0264 23.9725 50.3546 19.3972 47.2708 16.9021ZM44.5845 28.9629C44.5845 34.1624 44.5845 38.3211 43.7561 40.4012C43.1376 41.4386 42.5301 42.0834 41.07 42.0834C39.844 42.0834 39.0044 41.4592 38.5882 40.4012C37.5534 38.3211 37.5534 34.1588 37.5534 28.9629C37.5534 23.9725 37.5534 19.6047 38.5882 17.5244C39.0024 16.4871 39.8142 15.8423 41.07 15.8423C42.5188 15.8423 43.1376 16.4666 43.7579 17.5244C44.7926 19.6047 44.5864 23.9725 44.5864 28.9629H44.5845ZM119.403 53.5049V60.9904H117.958C117.131 57.8729 115.89 55.1815 112.584 54.959C110.516 54.7535 108.657 56.0002 108.449 57.8712C108.24 59.742 108.863 61.4035 112.584 63.4855C117.339 66.19 121.058 67.4367 121.058 73.0514C121.058 79.0826 115.89 81.9927 111.551 81.9927H103.284V71.5935H104.733C105.768 77.0006 107.421 80.3274 111.346 80.5348C113.828 80.5348 115.686 79.0771 115.686 76.3763C115.686 73.6755 114.014 72.0083 110.106 69.7226C105.766 67.0199 103.078 65.3564 103.078 61.6109C103.078 56.6207 106.593 53.4994 112.173 53.4994H119.418L119.403 53.5049ZM128.5 42.8984V22.7278C128.5 16.9039 125.398 14.2013 120.852 14.4107C117.75 14.6162 115.892 16.7002 115.064 18.3617C114.033 15.4498 111.757 14.2032 108.45 14.4107C105.766 14.6162 103.695 16.2834 102.87 18.1543V15.033H96.4612V42.8814H103.487V21.8997C103.487 19.8196 103.691 18.5729 104.936 17.5319C105.764 16.9095 106.589 16.7021 107.208 16.9095C108.879 17.3264 108.879 19.4065 108.879 21.8997V42.9001H115.873V21.6867C115.873 19.814 116.286 18.5655 117.322 17.5262C118.149 16.9039 118.994 16.6965 119.594 16.9039C121.266 17.3207 121.452 19.4009 121.452 21.8943V42.8814H128.48L128.5 42.8984ZM56.8006 9.20729H64.0452V42.8945H56.8006V9.20729ZM89.6436 42.9001V9.21103H82.3988V17.1132C81.7802 15.6554 80.3312 14.6162 78.2656 14.6162C73.0976 14.6162 68.9644 20.0233 68.758 28.3405C68.5539 33.955 70.4113 43.3114 77.6451 43.3114C80.5374 43.3114 82.1927 41.6292 82.813 40.1901V42.8945H89.6343L89.6436 42.9001ZM81.169 17.3226C82.618 19.4027 82.6181 24.3913 82.6181 28.3424C82.6181 32.5009 82.8224 37.908 81.169 40.1957C80.5485 41.0291 79.943 41.4294 78.8972 41.4294C77.4482 41.4294 76.6214 39.7472 76.2111 37.0631C76.003 34.5663 76.003 31.4487 76.003 28.1217C76.003 22.5072 76.4173 16.2685 79.1052 16.2685C80.1399 16.2685 80.5542 16.6853 81.1728 17.3096L81.169 17.3226ZM149.999 15.8647C151.857 16.9058 153.1 18.5691 153.1 22.3129V42.9001H146.28V39.7788C145.452 42.0648 143.177 43.5207 140.075 43.5207C137.593 43.5207 133.254 42.2872 133.254 35.826C133.254 29.7946 137.181 28.5367 141.52 26.6771C145.447 24.9949 145.86 24.8044 145.86 23.1446V18.5691C145.86 16.7002 144.829 15.8666 142.757 15.8666C141.931 16.0722 140.485 16.4909 140.485 17.5487C140.277 18.7822 141.711 18.7822 141.934 20.67C142.139 23.5819 139.867 24.6193 137.801 24.4119C136.352 24.4119 134.699 23.5802 134.494 21.2943C134.29 17.5506 138.422 14.4312 144.198 14.4312C146.885 14.4312 148.538 15.0555 149.985 15.889L149.999 15.8647ZM145.863 26.2621L143.591 27.72C141.319 29.1777 140.903 31.0468 140.697 33.1271C140.493 34.8092 140.493 36.2484 140.697 38.7416C140.901 41.0274 142.35 41.446 143.591 41.0274C145.041 40.4033 145.863 37.7006 145.863 34.785V26.2585V26.2621ZM47.6868 54.7535C49.5483 55.987 50.5791 57.4581 50.5791 61.2018V82.0003H43.9661V78.879C43.1393 80.9591 40.8675 82.4113 37.7616 82.4113C35.0753 82.4113 30.9404 81.3701 30.9404 74.926C30.9404 68.8945 34.8671 67.6367 39.0024 65.777C43.1376 63.9174 43.5462 63.6969 43.5462 62.2445V57.6655C43.5462 55.5852 42.5116 54.7555 40.4476 54.963C39.6191 54.963 38.172 55.3797 38.172 56.4207C37.9677 57.8786 39.3982 57.8786 39.621 59.7477C39.829 62.4521 37.5534 63.4912 35.4878 63.4912C34.0386 63.2857 32.3855 62.4538 32.1812 60.1644C31.9767 56.6319 36.1081 53.5106 41.8837 53.5106C44.5716 53.5106 46.223 53.9273 47.672 54.7442L47.6868 54.7535ZM43.5518 65.151L41.2798 66.6087C39.0079 68.0666 38.5936 69.9357 38.3856 72.0157C38.1813 73.6793 38.1813 75.3427 38.3856 77.6304C38.3856 80.1274 39.8345 80.5405 41.0737 79.9164C42.727 79.2919 43.5555 76.7987 43.5555 73.6775V65.151H43.5518ZM97.7059 61.824C97.7059 56.0002 94.6035 53.0901 90.0579 53.5068C87.786 53.7125 85.9245 54.7404 84.8899 56.2114V48.0998H77.8661V67.233C77.8661 74.3036 72.9062 80.9574 67.9463 80.7498C64.4353 80.7498 63.6051 78.0471 63.1908 75.1353C62.5703 70.9747 62.5703 66.1939 62.9826 60.9942C63.3969 57.6674 64.2088 54.963 66.7035 54.963C68.565 54.963 68.7711 56.1964 67.9295 57.0431C67.101 58.0841 65.8621 59.1232 66.4807 61.4109C67.0992 63.9079 71.0244 64.321 72.8896 62.4521C74.3384 60.7887 74.1154 58.0841 73.0937 56.4207C71.8677 54.3404 69.7873 53.5106 66.685 53.5106C62.758 53.5106 55.3163 57.0431 55.3163 68.2759C55.3163 80.3368 62.9641 82.4151 67.3035 82.4151C72.2635 82.4151 76.6048 78.0471 77.8437 74.5128V82.002H84.8714V60.9961C84.8714 58.9158 85.2856 57.6691 86.3202 56.6281C87.1487 56.0059 88.1817 55.7966 88.802 56.0059C90.4554 56.4207 90.4554 58.5027 90.4554 60.9961V82.0003H97.7002V61.8278L97.7059 61.824ZM25.3619 8.5849V20.4382H23.9127C22.6867 14.6144 19.9856 10.2483 16.2649 10.0409C13.783 9.83527 12.3397 11.2744 11.0969 13.3677C9.87091 15.8647 9.23559 21.0625 9.23559 27.2995C9.23559 33.1233 9.4436 37.4894 10.0641 40.6068C10.4764 42.0648 11.5129 44.3505 14.1973 44.3505C15.6463 44.3505 16.6791 43.9338 17.2996 43.117C18.3342 41.8833 18.5256 39.3733 18.5256 37.7099V32.0972C18.5256 30.0169 17.9051 28.7704 16.8723 28.146C16.0457 27.7292 14.8047 27.7292 14.1862 27.5218V26.0639H25.7594V55.7816H24.3104C23.6973 53.5162 23.283 51.8527 22.2484 49.9837C21.2135 48.1148 19.3541 46.0345 16.2537 46.0345C12.9471 45.8252 10.4653 47.9074 10.4653 51.0247C10.4653 55.1853 12.9471 56.2246 17.4928 58.7197C21.8342 61.2167 27.4127 63.295 27.4127 70.5748C27.4127 77.6453 21.418 82.0133 14.5985 82.0133H3.6421V67.6779H5.0911C6.95242 78.4901 11.5 80.3629 14.5985 80.3629C18.5256 80.3629 20.3721 77.8659 20.3721 74.3315C20.1676 69.7561 17.0561 68.0891 12.7241 65.805C6.52335 62.2727 3.63098 60.6055 3.63098 54.7815C3.83529 49.7912 7.76611 46.6699 12.1056 45.4234C3.01242 44.3824 0.324357 36.0652 0.532542 27.1331C0.532542 18.1918 5.70049 8.62415 15.8264 8.62415H25.3338L25.3619 8.5849Z" fill="#64A8F0"/>
</svg>

<svg xmlns="http://www.w3.org/2000/svg" width="180" height="91" viewBox="0 0 180 91">
  <path fill="#64A8F0" fill-rule="evenodd" d="M166.74 42.9h-7.027V15.033h6.614v3.121c.826-1.872 2.894-3.532 5.581-3.743 4.546-.206 7.648 2.497 7.648 8.317v20.17h-7.246V21.892c0-2.497 0-4.575-1.671-4.99-.621-.206-1.672 0-2.482.622-1.031 1.041-1.449 2.29-1.449 4.368v21.003l.032.005ZM47.27 16.902c-1.671-1.458-3.72-2.497-6.204-2.497-2.483 0-4.34 1.041-6.2 2.497-2.895 2.497-4.756 7.07-4.756 12.06 0 5.2 1.858 9.567 4.755 12.062 1.862 1.457 3.721 2.497 6.201 2.497 2.48 0 4.548-1.038 6.205-2.497 3.102-2.497 4.755-6.864 4.755-12.061 0-4.99-1.671-9.566-4.755-12.06Zm-2.686 12.06c0 5.2 0 9.36-.828 11.44-.618 1.037-1.226 1.681-2.686 1.681-1.226 0-2.066-.624-2.482-1.682-1.035-2.08-1.035-6.242-1.035-11.438 0-4.99 0-9.358 1.035-11.439.414-1.037 1.226-1.682 2.482-1.682 1.449 0 2.068.625 2.688 1.682 1.035 2.08.828 6.448.828 11.439h-.002Zm74.819 24.543v7.485h-1.445c-.827-3.117-2.068-5.809-5.374-6.031-2.068-.206-3.927 1.041-4.135 2.912-.209 1.871.414 3.532 4.135 5.614 4.755 2.705 8.474 3.952 8.474 9.566 0 6.032-5.168 8.942-9.507 8.942h-8.267v-10.4h1.449c1.035 5.408 2.688 8.734 6.613 8.942 2.482 0 4.34-1.458 4.34-4.159 0-2.7-1.672-4.368-5.58-6.653-4.34-2.703-7.028-4.367-7.028-8.112 0-4.99 3.515-8.112 9.095-8.112h7.245l-.015.006Zm9.097-10.607v-20.17c0-5.824-3.102-8.527-7.648-8.317-3.102.205-4.96 2.29-5.788 3.95-1.031-2.911-3.307-4.158-6.614-3.95-2.684.205-4.755 1.872-5.58 3.743v-3.121h-6.409v27.848h7.026V21.9c0-2.08.204-3.327 1.449-4.368.828-.622 1.653-.83 2.272-.622 1.671.416 1.671 2.497 1.671 4.99v21h6.994V21.687c0-1.873.413-3.122 1.449-4.16.827-.623 1.672-.83 2.272-.623 1.672.417 1.858 2.497 1.858 4.99v20.987h7.028l.02.017ZM56.8 9.208h7.245v33.687h-7.244V9.206ZM89.645 42.9V9.211H82.4v7.902c-.619-1.458-2.068-2.497-4.133-2.497-5.168 0-9.302 5.407-9.508 13.724-.204 5.615 1.653 14.971 8.887 14.971 2.892 0 4.548-1.682 5.168-3.12v2.703h6.821l.01.006ZM81.17 17.323c1.449 2.08 1.45 7.068 1.45 11.02 0 4.158.203 9.565-1.45 11.853-.62.833-1.226 1.233-2.272 1.233-1.449 0-2.276-1.682-2.686-4.366-.208-2.497-.208-5.614-.208-8.941 0-5.615.414-11.854 3.102-11.854 1.035 0 1.45.417 2.068 1.042l-.004.013ZM150 15.865c1.858 1.04 3.101 2.704 3.101 6.448V42.9h-6.82v-3.12c-.828 2.286-3.103 3.742-6.205 3.742-2.482 0-6.821-1.234-6.821-7.695 0-6.031 3.927-7.29 8.266-9.149 3.927-1.682 4.34-1.873 4.34-3.532V18.57c0-1.869-1.031-2.702-3.103-2.702-.826.205-2.272.624-2.272 1.682-.208 1.233 1.226 1.233 1.449 3.121.205 2.912-2.067 3.95-4.133 3.742-1.449 0-3.102-.832-3.307-3.118-.204-3.743 3.928-6.863 9.704-6.863 2.687 0 4.34.625 5.787 1.458l.014-.024Zm-4.136 10.397-2.272 1.458c-2.272 1.458-2.688 3.327-2.894 5.407-.204 1.682-.204 3.121 0 5.615.204 2.285 1.653 2.704 2.894 2.285 1.45-.624 2.272-3.326 2.272-6.242v-8.526.003ZM47.687 54.754c1.861 1.233 2.892 2.704 2.892 6.448V82h-6.613v-3.12c-.827 2.08-3.099 3.532-6.204 3.532-2.687 0-6.822-1.04-6.822-7.485 0-6.032 3.927-7.29 8.062-9.149 4.136-1.86 4.544-2.08 4.544-3.532v-4.58c0-2.08-1.034-2.91-3.098-2.702-.829 0-2.276.417-2.276 1.458-.204 1.458 1.226 1.458 1.449 3.327.208 2.704-2.068 3.743-4.133 3.743-1.45-.205-3.102-1.037-3.307-3.327-.204-3.532 3.927-6.653 9.703-6.653 2.688 0 4.339.416 5.788 1.233l.015.01ZM43.552 65.15l-2.272 1.458c-2.272 1.458-2.686 3.327-2.894 5.407-.205 1.663-.205 3.327 0 5.614 0 2.497 1.448 2.91 2.688 2.286 1.653-.624 2.482-3.117 2.482-6.239V65.15h-.004Zm54.154-3.327c0-5.824-3.103-8.734-7.648-8.317-2.272.206-4.134 1.233-5.168 2.704V48.1h-7.024v19.133c0 7.07-4.96 13.724-9.92 13.517-3.51 0-4.34-2.703-4.755-5.615-.62-4.16-.62-8.941-.208-14.14.414-3.328 1.226-6.032 3.72-6.032 1.862 0 2.068 1.233 1.227 2.08-.829 1.041-2.068 2.08-1.45 4.368.62 2.497 4.544 2.91 6.41 1.041 1.448-1.663 1.225-4.368.204-6.031-1.226-2.08-3.307-2.91-6.409-2.91-3.927 0-11.369 3.532-11.369 14.765 0 12.06 7.648 14.14 11.987 14.14 4.96 0 9.302-4.369 10.54-7.903v7.489h7.028V60.996c0-2.08.415-3.327 1.45-4.368.828-.622 1.86-.831 2.481-.622 1.653.415 1.653 2.497 1.653 4.99V82H97.7V61.828l.006-.004ZM25.362 8.584v11.854h-1.45c-1.225-5.824-3.926-10.19-7.647-10.397-2.482-.206-3.925 1.233-5.168 3.327-1.226 2.497-1.861 7.694-1.861 13.931 0 5.824.208 10.19.828 13.308.412 1.458 1.449 3.743 4.133 3.743 1.45 0 2.482-.416 3.103-1.233 1.034-1.234 1.226-3.744 1.226-5.407v-5.613c0-2.08-.62-3.327-1.654-3.951-.826-.417-2.067-.417-2.686-.624v-1.458H25.76v29.718h-1.45c-.613-2.266-1.027-3.93-2.062-5.798-1.035-1.87-2.894-3.95-5.994-3.95-3.307-.209-5.789 1.873-5.789 4.99 0 4.161 2.482 5.2 7.028 7.696 4.341 2.497 9.92 4.575 9.92 11.855 0 7.07-5.995 11.438-12.815 11.438H3.643V67.678h1.45c1.86 10.812 6.408 12.685 9.507 12.685 3.927 0 5.773-2.497 5.773-6.031-.204-4.576-3.316-6.243-7.648-8.527-6.2-3.532-9.093-5.2-9.093-11.024.204-4.99 4.135-8.111 8.475-9.358C3.012 44.383.324 36.065.533 27.133c0-8.941 5.167-18.509 15.293-18.509h9.508l.028-.04Z" clip-rule="evenodd"/>
</svg>
